public/img/meta.svg

<svg width="96" height="20" viewBox="0 0 96 20" fill="none" xmlns="http://www.w3.org/2000/svg">
<g clip-path="url(#clip0_78_38)">
<path d="M3.14532 12.7554C3.14532 13.8673 3.38937 14.721 3.70835 15.2375C4.12658 15.9139 4.75038 16.2005 5.38633 16.2005C6.20658 16.2005 6.95696 15.997 8.40304 13.997C9.56152 12.3939 10.9266 10.1438 11.8451 8.73316L13.4005 6.34329C14.481 4.68354 15.7316 2.83848 17.1656 1.58785C18.3362 0.567089 19.599 0 20.8699 0C23.0035 0 25.0359 1.23646 26.5914 3.55544C28.2937 6.09519 29.12 9.29418 29.12 12.5954C29.12 14.558 28.7332 16 28.0749 17.1392C27.439 18.241 26.1995 19.3418 24.1144 19.3418V16.2005C25.8997 16.2005 26.3453 14.56 26.3453 12.6825C26.3453 10.0071 25.7215 7.03797 24.3473 4.91646C23.3722 3.41165 22.1084 2.49215 20.718 2.49215C19.2142 2.49215 18.004 3.62633 16.6441 5.64861C15.921 6.72304 15.1787 8.03241 14.3453 9.50987L13.4278 11.1352C11.5848 14.403 11.118 15.1473 10.1965 16.3757C8.58127 18.5266 7.20202 19.3418 5.38633 19.3418C3.2324 19.3418 1.87038 18.4091 1.02684 17.0035C0.338228 15.8582 0 14.3554 0 12.643L3.14532 12.7554Z" fill="#0081FB"/>
<path d="M2.47998 3.77722C3.92201 1.55443 6.00302 0 8.38985 0C9.77213 0 11.1463 0.409114 12.5812 1.58076C14.1509 2.86177 15.8238 4.97114 17.9109 8.44759L18.6592 9.69519C20.4658 12.7048 21.4937 14.2532 22.0952 14.9833C22.8688 15.921 23.4106 16.2005 24.1144 16.2005C25.8997 16.2005 26.3453 14.56 26.3453 12.6825L29.12 12.5954C29.12 14.558 28.7331 16 28.0749 17.1392C27.439 18.241 26.1995 19.3418 24.1144 19.3418C22.8182 19.3418 21.6699 19.0603 20.4 17.8623C19.4238 16.9428 18.2825 15.3094 17.4045 13.841L14.7929 9.47848C13.4825 7.28911 12.2805 5.65671 11.5848 4.91747C10.8364 4.12253 9.87441 3.16253 8.33922 3.16253C7.09669 3.16253 6.0415 4.03443 5.15846 5.3681L2.47998 3.77722Z" fill="url(#paint0_linear_78_38)"/>
<path d="M8.33924 3.16253C7.09671 3.16253 6.04152 4.03443 5.15848 5.3681C3.90987 7.25266 3.14532 10.0597 3.14532 12.7554C3.14532 13.8673 3.38937 14.721 3.70835 15.2375L1.02684 17.0035C0.338228 15.8582 0 14.3554 0 12.643C0 9.52911 0.854684 6.28354 2.48 3.77722C3.92203 1.55443 6.00304 0 8.38987 0L8.33924 3.16253Z" fill="url(#paint1_linear_78_38)"/>
<path d="M35.2344 0.611633H38.8729L45.0592 11.8035L51.2465 0.611633H54.806V19.0015H51.8379V4.90733L46.4121 14.6673H43.6273L38.2025 4.90733V19.0015H35.2344V0.611633ZM64.1063 7.46834C61.9777 7.46834 60.6956 9.07037 60.3888 11.0542H67.6131C67.4642 9.01062 66.2855 7.46834 64.1063 7.46834ZM57.446 12.1843C57.446 8.01011 60.1437 4.97214 64.1579 4.97214C68.1063 4.97214 70.4637 7.97163 70.4637 12.4071V13.2223H60.3888C60.7463 15.3802 62.1782 16.8344 64.487 16.8344C66.3291 16.8344 67.4805 16.2724 68.5721 15.2445L70.1488 17.1757C68.6632 18.5418 66.7736 19.3296 64.3817 19.3296C60.0364 19.3296 57.446 16.161 57.446 12.1843ZM74.0627 7.73163H71.3306V5.30125H74.0627V1.28201H76.9265V5.30125H81.0774V7.73163H76.9265V13.8916C76.9265 15.9949 77.5989 16.7423 79.2516 16.7423C80.006 16.7423 80.4384 16.6775 81.0774 16.5711V18.9752C80.2815 19.2 79.522 19.3033 78.6997 19.3033C75.608 19.3033 74.0627 17.6142 74.0627 14.2329V7.73163ZM93.1361 10.0952C92.561 8.64303 91.2779 7.57366 89.3923 7.57366C86.9417 7.57366 85.3731 9.31239 85.3731 12.1448C85.3731 14.9063 86.8172 16.7291 89.2749 16.7291C91.207 16.7291 92.5863 15.6051 93.1361 14.2066V10.0952ZM95.9999 19.0015H93.1888V17.0835C92.403 18.2126 90.9731 19.3296 88.6572 19.3296C84.9326 19.3296 82.4435 16.2116 82.4435 12.1448C82.4435 8.03948 84.9923 4.97214 88.8151 4.97214C90.7048 4.97214 92.1873 5.72758 93.1888 7.06125V5.30125H95.9999V19.0015Z" fill="white"/>
</g>
<defs>
<linearGradient id="paint0_linear_78_38" x1="6.1772" y1="11.8481" x2="26.2278" y2="12.8608" gradientUnits="userSpaceOnUse">
<stop stop-color="#0064E1"/>
<stop offset="0.4" stop-color="#0064E1"/>
<stop offset="0.83" stop-color="#0073EE"/>
<stop offset="1" stop-color="#0082FB"/>
</linearGradient>
<linearGradient id="paint1_linear_78_38" x1="4.55696" y1="14.0759" x2="4.55696" y2="6.68354" gradientUnits="userSpaceOnUse">
<stop stop-color="#0082FB"/>
<stop offset="1" stop-color="#0064E0"/>
</linearGradient>
<clipPath id="clip0_78_38">
<rect width="96" height="19.3418" fill="white"/>
</clipPath>
</defs>
</svg>

<svg xmlns="http://www.w3.org/2000/svg" width="96" height="20" fill="none" viewBox="0 0 96 20"><g clip-path="url(#a)"><path fill="#0081fb" d="M3.145 12.755c0 1.112.244 1.966.563 2.483.419.676 1.042.963 1.678.963.82 0 1.571-.204 3.017-2.204 1.159-1.603 2.524-3.853 3.442-5.264l1.555-2.39c1.081-1.66 2.332-3.505 3.766-4.755C18.336.568 19.599 0 20.87 0c2.133 0 4.166 1.236 5.721 3.555 1.703 2.54 2.529 5.74 2.529 9.04 0 1.963-.387 3.405-1.045 4.544-.636 1.102-1.875 2.203-3.96 2.203V16.2c1.785 0 2.23-1.641 2.23-3.519 0-2.675-.623-5.644-1.998-7.766-.975-1.504-2.239-2.424-3.629-2.424-1.504 0-2.714 1.134-4.074 3.157-.723 1.074-1.465 2.383-2.299 3.86l-.917 1.626c-1.843 3.268-2.31 4.012-3.232 5.24-1.615 2.152-2.994 2.967-4.81 2.967-2.154 0-3.516-.933-4.36-2.338C.339 15.857 0 14.354 0 12.642z"/><path fill="url(#b)" d="M2.48 3.777C3.922 1.554 6.003 0 8.39 0c1.382 0 2.756.41 4.191 1.58 1.57 1.282 3.243 3.391 5.33 6.868l.748 1.247c1.807 3.01 2.835 4.558 3.436 5.288.774.938 1.316 1.218 2.02 1.218 1.785 0 2.23-1.641 2.23-3.519l2.775-.087c0 1.963-.387 3.405-1.045 4.544-.636 1.102-1.875 2.203-3.96 2.203-1.297 0-2.445-.282-3.715-1.48-.976-.92-2.117-2.553-2.995-4.021l-2.612-4.363c-1.31-2.189-2.512-3.821-3.208-4.56-.749-.795-1.71-1.755-3.246-1.755-1.242 0-2.298.871-3.18 2.205z"/><path fill="url(#c)" d="M8.34 3.163c-1.243 0-2.298.871-3.182 2.205-1.248 1.885-2.013 4.692-2.013 7.387 0 1.112.244 1.966.563 2.483l-2.681 1.765C.338 15.859 0 14.356 0 12.644c0-3.114.855-6.36 2.48-8.866C3.922 1.554 6.003 0 8.39 0z"/><path fill="#fff" d="M35.234.612h3.639l6.186 11.192L51.247.611h3.559v18.39h-2.968V4.906l-5.426 9.76h-2.785l-5.425-9.76v14.095h-2.968zm28.872 6.856c-2.128 0-3.41 1.602-3.717 3.586h7.224c-.149-2.043-1.328-3.586-3.507-3.586m-6.66 4.716c0-4.174 2.698-7.212 6.712-7.212 3.948 0 6.306 3 6.306 7.435v.815H60.389c.357 2.158 1.79 3.612 4.098 3.612 1.842 0 2.994-.562 4.085-1.59l1.577 1.932c-1.486 1.366-3.375 2.154-5.767 2.154-4.346 0-6.936-3.169-6.936-7.146m16.617-4.452H71.33v-2.43h2.732v-4.02h2.864v4.02h4.15v2.43h-4.15v6.16c0 2.103.672 2.85 2.325 2.85.754 0 1.186-.065 1.825-.17v2.403a8.5 8.5 0 0 1-2.377.328q-4.638 0-4.637-5.07zm19.073 2.363c-.575-1.452-1.858-2.521-3.744-2.521-2.45 0-4.019 1.738-4.019 4.57 0 2.762 1.444 4.585 3.902 4.585 1.932 0 3.311-1.124 3.861-2.522zM96 19.002h-2.811v-1.918c-.786 1.129-2.216 2.246-4.532 2.246-3.724 0-6.213-3.118-6.213-7.185 0-4.106 2.548-7.173 6.371-7.173 1.89 0 3.372.756 4.374 2.09v-1.76h2.81z"/></g><defs><linearGradient id="b" x1="6.177" x2="26.228" y1="11.848" y2="12.861" gradientUnits="userSpaceOnUse"><stop stop-color="#0064e1"/><stop offset=".4" stop-color="#0064e1"/><stop offset=".83" stop-color="#0073ee"/><stop offset="1" stop-color="#0082fb"/></linearGradient><linearGradient id="c" x1="4.557" x2="4.557" y1="14.076" y2="6.684" gradientUnits="userSpaceOnUse"><stop stop-color="#0082fb"/><stop offset="1" stop-color="#0064e0"/></linearGradient><clipPath id="a"><path fill="#fff" d="M0 0h96v19.342H0z"/></clipPath></defs></svg>
